assets/food/wooden-spoon.svg

<?xml version="1.0" encoding="UTF-8" standalone="no"?>
<!-- Created with Inkscape (http://www.inkscape.org/) -->

<svg
   xmlns:dc="http://purl.org/dc/elements/1.1/"
   xmlns:cc="http://creativecommons.org/ns#"
   xmlns:rdf="http://www.w3.org/1999/02/22-rdf-syntax-ns#"
   xmlns:svg="http://www.w3.org/2000/svg"
   xmlns="http://www.w3.org/2000/svg"
   xmlns:sodipodi="http://sodipodi.sourceforge.net/DTD/sodipodi-0.dtd"
   xmlns:inkscape="http://www.inkscape.org/namespaces/inkscape"
   width="579.8642"
   height="189.18237"
   id="svg2"
   version="1.1"
   inkscape:version="0.48.4 r9939"
   sodipodi:docname="New document 1">
  <defs
     id="defs4" />
  <sodipodi:namedview
     id="base"
     pagecolor="#ffffff"
     bordercolor="#666666"
     borderopacity="1.0"
     inkscape:pageopacity="0.0"
     inkscape:pageshadow="2"
     inkscape:zoom="1"
     inkscape:cx="690.08827"
     inkscape:cy="63.610976"
     inkscape:document-units="px"
     inkscape:current-layer="layer1"
     showgrid="false"
     fit-margin-top="0"
     fit-margin-left="0"
     fit-margin-right="0"
     fit-margin-bottom="0"
     inkscape:window-width="1920"
     inkscape:window-height="1017"
     inkscape:window-x="-8"
     inkscape:window-y="-8"
     inkscape:window-maximized="1" />
  <metadata
     id="metadata7">
    <rdf:RDF>
      <cc:Work
         rdf:about="">
        <dc:format>image/svg+xml</dc:format>
        <dc:type
           rdf:resource="http://purl.org/dc/dcmitype/StillImage" />
        <dc:title></dc:title>
      </cc:Work>
    </rdf:RDF>
  </metadata>
  <g
     inkscape:label="Layer 1"
     inkscape:groupmode="layer"
     id="layer1"
     transform="translate(272.0027,-245.98481)">
    <g
       id="g4003"
       transform="matrix(0.99999539,0.003039,-0.003039,0.99999539,4.9460144,-1.1599398)">
      <path
         sodipodi:nodetypes="scccscsccs"
         id="path2996-1-7"
         d="m -247,254.97732 c -31.87929,-0.49703 -42.69284,26.30906 -6.15625,36.96875 56.59805,21.21665 85.48315,21.08957 117.20089,29.86607 67.895263,10.97337 206.707715,33.01575 232.831945,48.72846 8.266875,34.1448 41.783525,54.36079 95.874205,62.20781 55.83554,8.10014 82.04612,-0.17151 108.1875,-33.23985 -5.2993,-25.4492 -75.50798,-56.32572 -103.84454,-58.68749 -41.08161,-3.42403 -67.25759,0.17327 -82.59375,12.34375 -116.8287599,-42.10011 -234.35481,-69.55098 -354.84375,-97.6875 -2.30475,-0.2886 -4.53096,-0.46686 -6.65625,-0.5 z"
         style="color:#000000;fill:#deaa87;fill-opacity:1;fill-rule:nonzero;stroke:none;stroke-width:1.09924769;marker:none;visibility:visible;display:inline;overflow:visible;enable-background:accumulate"
         inkscape:connector-curvature="0" />
      <path
         sodipodi:nodetypes="scccsssccs"
         inkscape:connector-curvature="0"
         id="path2996-1"
         d="m -247,247.90625 c -31.87929,-0.49703 -42.69284,26.30906 -6.15625,36.96875 56.59805,21.21665 83.3403,21.08957 115.05804,29.86607 67.895259,10.97337 212.911478,35.04622 239.03571,50.75893 -6.733128,24.6448 40.75307,53.34048 94.84375,61.1875 55.83554,8.10014 104.26948,-7.24258 108.1875,-34.25 3.918,-27.00742 -78.53844,-56.32573 -106.875,-58.6875 -41.08161,-3.42403 -67.25759,0.17327 -82.59375,12.34375 -116.8287631,-42.10011 -234.35481,-69.55098 -354.84375,-97.6875 -2.30475,-0.2886 -4.53096,-0.46686 -6.65625,-0.5 z"
         style="color:#000000;fill:#e9c6af;fill-opacity:1;fill-rule:nonzero;stroke:none;stroke-width:1.09924769;marker:none;visibility:visible;display:inline;overflow:visible;enable-background:accumulate" />
      <path
         sodipodi:nodetypes="ccccccccc"
         inkscape:connector-curvature="0"
         id="path3843"
         d="m -276.03125,263.71875 c -0.15587,1.21843 -0.12409,2.47118 0.125,3.71875 l 126.125,25.4375 76.0625,12.0625 184.03125,43.25 L -35.21875,309 l -111.0625,-19.90625 -62.2123,-11.26454 z"
         style="fill:#e4b99d;fill-opacity:1;stroke:none" />
      <path
         sodipodi:nodetypes="cccccccc"
         inkscape:connector-curvature="0"
         id="path3845"
         d="m -264.6875,251.0625 c -2.00435,0.88291 -3.77176,1.93385 -5.28125,3.09375 l 41.75,8.75 c 59.38429,15.56053 87.95833,17.91667 131.9375,26.875 L 59.25,330.25 -69.40625,292.65625 C -133.18723,279.02101 -190.20138,269.897 -261.21875,251.4375 z"
         style="fill:#e4b99d;fill-opacity:1;stroke:none" />
      <path
         sodipodi:nodetypes="cccccc"
         inkscape:connector-curvature="0"
         id="path3847"
         d="m -270.06863,273.41544 c 33.35108,7.16619 63.44209,15.96242 101.55496,20.74772 L 50.360448,339.81869 -152.17019,301.34041 c -29.45402,-4.62594 -64.28524,-11.40276 -107.06114,-21.35745 z"
         style="fill:#e4b99d;fill-opacity:1;stroke:none" />
      <path
         id="path3851"
         d="m -203,299.375 -1.6875,0.84375 c 15.29471,3.8778 27.99838,6.16748 40,8.5 C -120.66399,314.7808 -60.5,323.375 -60.5,323.375 l -142.5,-24 z"
         style="fill:#e4b99d;fill-opacity:1;stroke:none"
         inkscape:connector-curvature="0" />
      <path
         sodipodi:nodetypes="scsscsss"
         inkscape:connector-curvature="0"
         id="path2996-0"
         d="m 171.40625,336.8125 c -10.9129,0.0933 -20.20888,1.03868 -28.09375,2.90625 -4.53665,3.97422 -7.94606,8.90291 -10.34375,14.84375 -9.23353,22.87831 -2.12907,43.40202 81.8125,57.84375 28.55862,4.91337 55.04312,1.25588 72.59375,-7.03125 4.05484,-4.14337 6.65272,-8.83709 7.40625,-14.03125 3.56426,-24.569 -71.44061,-51.25772 -97.21875,-53.40625 -9.59038,-0.79933 -18.28826,-1.19224 -26.15625,-1.125 z"
         style="color:#000000;fill:#d6ac8f;fill-opacity:1;fill-rule:nonzero;stroke:none;stroke-width:1;marker:none;visibility:visible;display:inline;overflow:visible;enable-background:accumulate" />
      <path
         id="path2996-0-4"
         d="m 171.40625,336.8125 c -10.04222,0.0859 -18.69206,0.91643 -26.15625,2.5 -0.61966,0.12514 -1.24082,0.23298 -1.84375,0.375 -0.0313,0.007 -0.0625,0.0239 -0.0937,0.0312 -16.74945,3.96718 -27.04474,12.08563 -32.46875,24.9375 -9.65317,22.87261 34.70567,50.44368 85.5,57.8125 40.05585,5.81096 75.90618,-1.63846 91.03125,-17.09375 1.01371,-1.03584 1.92446,-2.11489 2.75,-3.21875 0.41677,-0.55703 0.82315,-1.1119 1.1875,-1.6875 1.81728,-2.8432 2.99779,-5.87865 3.46875,-9.125 1.44798,-9.98116 -10.08237,-20.32539 -26,-29.21875 -1.22115,-0.68227 -2.48207,-1.33802 -3.75,-2 -22.90658,-11.993 -52.96855,-20.97895 -67.46875,-22.1875 -7.53882,-0.62834 -14.50251,-0.99378 -20.96875,-1.09375 -1.75967,-0.0272 -3.50439,-0.0457 -5.1875,-0.0312 z"
         style="color:#000000;fill:#d6ac8f;fill-opacity:1;fill-rule:nonzero;stroke:none;stroke-width:1;marker:none;visibility:visible;display:inline;overflow:visible;enable-background:accumulate"
         inkscape:connector-curvature="0" />
      <path
         sodipodi:nodetypes="ccccc"
         inkscape:connector-curvature="0"
         id="path3908"
         d="m 139.73744,340.95317 c 33.28915,31.07883 84.63271,31.68228 111.31281,12.59099 l 5.35356,2.14645 c -43.17317,32.40161 -103.5746,6.65648 -122.4896,-12.56066 z"
         style="fill:#e3bda4;fill-opacity:1;stroke:none" />
      <path
         sodipodi:nodetypes="cccc"
         inkscape:connector-curvature="0"
         id="path3910"
         d="m 278.54335,368.10742 c -6.32451,7.50015 -30.14881,13.03657 -49.8969,14.20451 24.42851,0.92415 46.95561,-4.60426 53.63173,-11.42548 z"
         style="fill:#ddbaa1;fill-opacity:1;stroke:none" />
      <path
         sodipodi:nodetypes="ccccc"
         inkscape:connector-curvature="0"
         id="path3912"
         d="m 119.15901,352.62474 c 34.74442,25.97117 89.23927,56.76278 170.32843,24.91422 0.78251,0.94021 1.52038,1.88042 2.06932,2.82063 -45.58695,30.36712 -124.27783,20.04987 -176.31197,-23.49741 z"
         style="fill:#e3bda4;fill-opacity:1;stroke:none" />
      <path
         id="path2996"
         d="m 171.40625,336.8125 c 1.68311,-0.0144 3.42783,0.004 5.1875,0.0312 -1.76288,-0.0262 -3.50147,-0.0457 -5.1875,-0.0312 z m 8.15625,0.0937 c 3.52131,0.0971 7.14574,0.25228 10.96875,0.5 -3.8005,-0.24354 -7.46653,-0.40576 -10.96875,-0.5 z m 10.96875,0.5 c 2.28701,0.14819 4.63366,0.33142 7.03125,0.53125 -2.40849,-0.20074 -4.73432,-0.38406 -7.03125,-0.53125 z m 7.03125,0.53125 c 2.4167,0.20142 5.26079,0.60792 8.4375,1.21875 -3.17653,-0.61097 -6.0208,-1.01733 -8.4375,-1.21875 z m 8.4375,1.2188 c 2.11781,0.40722 4.37241,0.89585 6.75,1.46875 -2.3774,-0.57305 -4.63231,-1.06144 -6.75,-1.46875 z m 6.75,1.46875 c 3.56639,0.85936 7.3996,1.89821 11.375,3.09375 -3.97499,-1.19585 -7.8089,-2.23417 -11.375,-3.09375 z m -66.96875,-1.4375 c -0.80571,0.16545 -1.59723,0.31679 -2.375,0.5 0.77237,-0.18197 1.57542,-0.33561 2.375,-0.5 z m -2.46875,0.53125 c -16.74945,3.96718 -27.04474,12.08563 -32.46875,24.9375 -9.65317,22.87261 34.70567,50.44368 85.5,57.8125 40.05585,5.81096 75.90618,-1.63846 91.03125,-17.09375 -17.55063,8.28713 -44.03513,11.94462 -72.59375,7.03125 -83.94157,-14.44173 -91.04603,-34.96544 -81.8125,-57.84375 2.39769,-5.94084 5.8071,-10.86953 10.34375,-14.84375 z M 287.375,405.375 c 1.52519,-1.55849 2.85122,-3.19018 3.9375,-4.90625 -1.09037,1.70592 -2.41693,3.35249 -3.9375,4.90625 z m 3.9375,-4.90625 c 0.30758,-0.4859 0.60436,-0.97077 0.875,-1.46875 -0.27498,0.50109 -0.56253,0.97988 -0.875,1.46875 z M 232.25,346.3125 c 4.13107,1.39525 8.34217,2.93555 12.53125,4.59375 -4.18856,-1.65861 -8.40065,-3.19814 -12.53125,-4.59375 z m 12.53125,4.59375 c 2.79272,1.10547 5.572,2.26268 8.3125,3.46875 -2.74014,-1.20634 -5.52013,-2.36301 -8.3125,-3.46875 z m 13.6875,5.9375 c 3.57633,1.69394 7.03443,3.44976 10.3125,5.28125 -3.27112,-1.82823 -6.74416,-3.58999 -10.3125,-5.28125 z"
         style="color:#000000;fill:#b58b6e;fill-opacity:0.63829794;fill-rule:nonzero;stroke:none;stroke-width:1;marker:none;visibility:visible;display:inline;overflow:visible;enable-background:accumulate"
         inkscape:connector-curvature="0" />
    </g>
  </g>
</svg>

<?xml version="1.0" encoding="UTF-8" standalone="no"?>
<!DOCTYPE svg PUBLIC "-//W3C//DTD SVG 1.1//EN" "http://www.w3.org/Graphics/SVG/1.1/DTD/svg11.dtd">
<svg width="100%" height="100%" viewBox="0 0 1024 1024" version="1.1" xmlns="http://www.w3.org/2000/svg" xmlns:xlink="http://www.w3.org/1999/xlink" xml:space="preserve" xmlns:serif="http://www.serif.com/" style="fill-rule:evenodd;clip-rule:evenodd;stroke-linejoin:round;stroke-miterlimit:2;">
    <g transform="matrix(0.999995,0.003039,-0.003039,0.999995,499.05,75.4404)">
        <g id="Layer-1" serif:id="Layer 1">
            <g id="g4003">
                <path id="path2996-1-7" d="M-247,254.977C-278.879,254.48 -289.693,281.286 -253.156,291.946C-196.558,313.163 -167.673,313.036 -135.955,321.812C-68.06,332.786 70.752,354.828 96.877,370.541C105.143,404.685 138.66,424.901 192.751,432.748C248.586,440.849 274.797,432.577 300.938,399.509C295.639,374.059 225.43,343.183 197.094,340.821C156.012,337.397 129.836,340.994 114.5,353.165C-2.329,311.065 -119.855,283.614 -240.344,255.477C-242.649,255.189 -244.875,255.01 -247,254.977Z" style="fill:rgb(222,170,135);fill-rule:nonzero;stroke:black;stroke-width:2px;"/>
                <path id="path2996-1" d="M-247,247.906C-278.879,247.409 -289.693,274.215 -253.156,284.875C-196.558,306.092 -169.816,305.965 -138.098,314.741C-70.203,325.714 74.813,349.787 100.938,365.5C94.204,390.145 141.691,418.84 195.781,426.688C251.617,434.788 300.051,419.445 303.969,392.438C307.887,365.43 225.43,336.112 197.094,333.75C156.012,330.326 129.836,333.923 114.5,346.094C-2.329,303.994 -119.855,276.543 -240.344,248.406C-242.649,248.118 -244.875,247.939 -247,247.906Z" style="fill:rgb(233,198,175);fill-rule:nonzero;stroke:black;stroke-width:2px;"/>
                <path id="path3843" d="M-276.031,263.719C-276.187,264.937 -276.155,266.19 -275.906,267.438L-149.781,292.875L-73.719,304.938L110.313,348.188L-35.219,309L-146.281,289.094L-208.494,277.829L-276.031,263.719Z" style="fill:rgb(228,185,157);fill-rule:nonzero;"/>
                <path id="path3845" d="M-264.688,251.063C-266.692,251.945 -268.459,252.996 -269.969,254.156L-228.219,262.906C-168.834,278.467 -140.26,280.823 -96.281,289.781L59.25,330.25L-69.406,292.656C-133.187,279.021 -190.201,269.897 -261.219,251.438L-264.688,251.063Z" style="fill:rgb(228,185,157);fill-rule:nonzero;"/>
                <path id="path3847" d="M-270.069,273.415C-236.718,280.582 -206.627,289.378 -168.514,294.163L50.36,339.819L-152.17,301.34C-181.624,296.714 -216.455,289.938 -259.231,279.983L-270.069,273.415Z" style="fill:rgb(228,185,157);fill-rule:nonzero;"/>
                <path id="path3851" d="M-203,299.375L-204.688,300.219C-189.393,304.097 -176.689,306.386 -164.688,308.719C-120.664,314.781 -60.5,323.375 -60.5,323.375L-203,299.375Z" style="fill:rgb(228,185,157);fill-rule:nonzero;"/>
                <path id="path2996-0" d="M171.406,336.813C160.493,336.906 151.197,337.851 143.313,339.719C138.776,343.693 135.366,348.622 132.969,354.563C123.735,377.441 130.84,397.965 214.781,412.406C243.34,417.32 269.824,413.662 287.375,405.375C291.43,401.232 294.028,396.538 294.781,391.344C298.346,366.775 223.341,340.086 197.563,337.938C187.972,337.138 179.274,336.745 171.406,336.813Z" style="fill:rgb(214,172,143);fill-rule:nonzero;"/>
                <path id="path2996-0-4" d="M171.406,336.813C161.364,336.898 152.714,337.729 145.25,339.313C144.63,339.438 144.009,339.545 143.406,339.688C143.375,339.695 143.344,339.711 143.313,339.719C126.563,343.686 116.268,351.804 110.844,364.656C101.191,387.529 145.549,415.1 196.344,422.469C236.4,428.28 272.25,420.83 287.375,405.375C288.389,404.339 289.3,403.26 290.125,402.156C290.542,401.599 290.948,401.044 291.313,400.469C293.13,397.626 294.31,394.59 294.781,391.344C296.229,381.363 284.699,371.018 268.781,362.125C267.56,361.443 266.299,360.787 265.031,360.125C242.125,348.132 212.063,339.146 197.563,337.937C190.024,337.309 183.06,336.944 176.594,336.844C174.834,336.817 173.089,336.798 171.406,336.813L171.406,336.813Z" style="fill:rgb(214,172,143);fill-rule:nonzero;"/>
                <path id="path3908" d="M139.737,340.953C173.027,372.032 224.37,372.635 251.05,353.544L256.404,355.691C213.231,388.092 152.829,362.347 133.914,343.13L139.737,340.953Z" style="fill:rgb(227,189,164);fill-rule:nonzero;"/>
                <path id="path3910" d="M278.543,368.107C272.219,375.608 248.395,381.144 228.646,382.312C253.075,383.236 275.602,377.708 282.278,370.886L278.543,368.107Z" style="fill:rgb(221,186,161);fill-rule:nonzero;"/>
                <path id="path3912" d="M119.159,352.625C153.903,378.596 208.398,409.388 289.487,377.539C290.27,378.479 291.008,379.419 291.557,380.36C245.97,410.727 167.279,400.409 115.245,356.862L119.159,352.625Z" style="fill:rgb(227,189,164);fill-rule:nonzero;"/>
                <path id="path2996" d="M171.406,336.813C173.089,336.798 174.834,336.817 176.594,336.844C174.831,336.818 173.092,336.798 171.406,336.813ZM179.563,336.906C183.084,337.003 186.708,337.158 190.531,337.406C186.731,337.163 183.065,337 179.563,336.906ZM190.531,337.406C192.818,337.554 195.165,337.738 197.563,337.937C195.154,337.737 192.828,337.553 190.531,337.406ZM197.563,337.937C199.979,338.139 202.823,338.545 206,339.156C202.823,338.545 199.979,338.139 197.563,337.937ZM206,339.156C208.118,339.563 210.372,340.052 212.75,340.625C210.373,340.052 208.118,339.564 206,339.156ZM212.75,340.625C216.316,341.484 220.15,342.523 224.125,343.719C220.15,342.523 216.316,341.485 212.75,340.625ZM145.781,339.188C144.976,339.353 144.184,339.504 143.406,339.688C144.179,339.506 144.982,339.352 145.781,339.188ZM143.313,339.719C126.563,343.686 116.268,351.804 110.844,364.656C101.191,387.529 145.549,415.1 196.344,422.469C236.4,428.28 272.25,420.83 287.375,405.375C269.824,413.662 243.34,417.32 214.781,412.406C130.84,397.965 123.735,377.441 132.969,354.563C135.366,348.622 138.776,343.693 143.313,339.719ZM287.375,405.375C288.9,403.817 290.226,402.185 291.313,400.469C290.222,402.175 288.896,403.821 287.375,405.375ZM291.313,400.469C291.62,399.983 291.917,399.498 292.188,399C291.913,399.501 291.625,399.98 291.313,400.469ZM232.25,346.313C236.381,347.708 240.592,349.248 244.781,350.906C240.593,349.248 236.381,347.708 232.25,346.313ZM244.781,350.906C247.574,352.012 250.353,353.169 253.094,354.375C250.354,353.169 247.574,352.012 244.781,350.906ZM258.469,356.844C262.045,358.538 265.503,360.294 268.781,362.125C265.51,360.297 262.037,358.535 258.469,356.844Z" style="fill:rgb(181,139,110);fill-opacity:0.64;fill-rule:nonzero;"/>
            </g>
        </g>
    </g>
</svg>
